public/nextjs.svg

<svg xmlns="http://www.w3.org/2000/svg" width="512" height="104" fill="none"><g clip-path="url(#a)"><path fill="#fff" d="M429.543.043v16.46h-35.377V103.1h-17.69V16.504h-36.114V.043zm3.977 93.24c1.246 0 2.336.448 3.259 1.346.936.897 1.402 1.972 1.415 3.224a4.5 4.5 0 0 1-.66 2.327 4.8 4.8 0 0 1-1.714 1.665 4.4 4.4 0 0 1-2.3.626c-1.296 0-2.398-.449-3.32-1.346-.923-.898-1.38-1.985-1.368-3.272q-.017-1.878 1.368-3.224c.922-.898 2.024-1.346 3.32-1.346M82.916 103.1 17.69 22.028v81.03H0V0h22.111l82.406 102.329.001-85.825-.007-16.461h89.18v16.46h-71.484v26.48h57.488v16.461h-57.488V86.64h71.485v16.46zm167.469-43.813L261.978 73.7l-23.755 29.522h-23.215zM238.223.086l29.93 37.17L297.989.2l23.15-.035-41.396 51.485 41.463 51.493h-23.217L215.074.086zm225.488 58.97h7.838v30.2c-.011 2.775-.612 5.148-1.785 7.145-1.187 1.995-2.83 3.519-4.938 4.594-2.098 1.062-4.555 1.606-7.348 1.606-2.553 0-4.841-.46-6.879-1.358s-3.655-2.244-4.842-4.016c-1.2-1.771-1.787-3.98-1.787-6.625h7.852c.012 1.157.275 2.16.778 3a5 5 0 0 0 2.086 1.924q1.348.675 3.091.674c1.26 0 2.338-.26 3.213-.792q1.312-.78 2.014-2.338c.455-1.028.695-2.303.707-3.815zm40.09 11.81c-.19-1.83-1.03-3.26-2.492-4.275-1.475-1.028-3.38-1.535-5.718-1.535-1.64 0-3.055.248-4.23.732-1.174.496-2.085 1.157-2.709 1.996-.622.838-.934 1.795-.959 2.87 0 .897.216 1.677.635 2.326a5.2 5.2 0 0 0 1.714 1.666c.752.473 1.557.857 2.398 1.145q1.33.46 2.66.78l4.087 1.004c1.643.378 3.237.885 4.759 1.535 1.521.638 2.9 1.453 4.11 2.433q1.816 1.47 2.877 3.543c.707 1.382 1.067 3 1.067 4.866 0 2.515-.647 4.724-1.954 6.637-1.306 1.902-3.188 3.39-5.657 4.465-2.457 1.063-5.43 1.606-8.929 1.606-3.38 0-6.328-.52-8.81-1.559-2.492-1.027-4.434-2.54-5.837-4.524s-2.157-4.405-2.265-7.251h7.768c.107 1.488.587 2.728 1.402 3.732.826.992 1.905 1.724 3.224 2.22 1.33.485 2.816.733 4.458.733 1.714 0 3.224-.26 4.53-.768 1.295-.508 2.313-1.216 3.045-2.138.743-.91 1.115-1.984 1.127-3.212-.012-1.122-.349-2.055-.996-2.788q-.989-1.098-2.733-1.842c-1.173-.496-2.54-.945-4.098-1.334l-4.962-1.252c-3.584-.91-6.424-2.291-8.498-4.146-2.085-1.854-3.116-4.31-3.116-7.393 0-2.527.695-4.748 2.098-6.65 1.39-1.9 3.296-3.377 5.705-4.428 2.42-1.063 5.154-1.583 8.197-1.583 3.093 0 5.801.52 8.139 1.583 2.336 1.051 4.171 2.515 5.5 4.381 1.331 1.867 2.027 4.004 2.063 6.425z"/></g><defs><clipPath id="a"><path fill="#fff" d="M0 0h512v104H0z"/></clipPath></defs></svg>

<svg width="512" height="104" viewBox="0 0 512 104" fill="none" xmlns="http://www.w3.org/2000/svg">
<g clip-path="url(#clip0_1068_27)">
<path d="M429.543 0.043V16.503H394.166V103.1H376.476V16.504H340.362V0.043H429.543ZM433.52 93.283C434.766 93.283 435.856 93.731 436.779 94.629C437.715 95.526 438.181 96.601 438.194 97.853C438.19 98.6744 437.962 99.4791 437.534 100.18C437.112 100.871 436.523 101.443 435.82 101.845C435.126 102.261 434.33 102.478 433.52 102.471C432.224 102.471 431.122 102.022 430.2 101.125C429.277 100.227 428.82 99.14 428.832 97.853C428.821 96.601 429.277 95.5263 430.2 94.629C431.122 93.731 432.224 93.283 433.52 93.283ZM82.916 103.1L17.69 22.028V103.058H0V0H22.111L104.517 102.329L104.518 16.504L104.511 0.043H193.691V16.503H122.207V42.983H179.695V59.444H122.207V86.64H193.692V103.1H82.916ZM250.385 59.287L261.978 73.7L238.223 103.222H215.008L250.385 59.287ZM238.223 0.086L268.153 37.256L297.989 0.2L321.139 0.165L279.743 51.65L321.206 103.143H297.989L215.074 0.086H238.223ZM463.711 59.056H471.549V89.256C471.538 92.031 470.937 94.404 469.764 96.401C468.577 98.396 466.934 99.92 464.826 100.995C462.728 102.057 460.271 102.601 457.478 102.601C454.925 102.601 452.637 102.141 450.599 101.243C448.561 100.345 446.944 98.999 445.757 97.227C444.557 95.456 443.97 93.247 443.97 90.602H451.822C451.834 91.759 452.097 92.762 452.6 93.602C453.095 94.4313 453.819 95.0996 454.686 95.526C455.585 95.976 456.615 96.2007 457.777 96.2C459.037 96.2 460.115 95.94 460.99 95.408C461.865 94.888 462.536 94.1087 463.004 93.07C463.459 92.042 463.699 90.767 463.711 89.255V59.056ZM503.801 70.866C503.611 69.036 502.771 67.606 501.309 66.591C499.834 65.563 497.929 65.056 495.591 65.056C493.951 65.056 492.536 65.304 491.361 65.788C490.187 66.284 489.276 66.945 488.652 67.784C488.03 68.622 487.718 69.579 487.693 70.654C487.693 71.551 487.909 72.331 488.328 72.98C488.762 73.6609 489.349 74.2313 490.042 74.646C490.794 75.1191 491.599 75.5033 492.44 75.791C493.327 76.0977 494.213 76.3577 495.1 76.571L499.187 77.575C500.83 77.953 502.424 78.46 503.946 79.11C505.467 79.748 506.846 80.563 508.056 81.543C509.267 82.523 510.226 83.704 510.933 85.086C511.64 86.468 512 88.086 512 89.952C512 92.467 511.353 94.676 510.046 96.589C508.74 98.491 506.858 99.979 504.389 101.054C501.932 102.117 498.959 102.66 495.46 102.66C492.08 102.66 489.132 102.14 486.65 101.101C484.158 100.074 482.216 98.561 480.813 96.577C479.41 94.593 478.656 92.172 478.548 89.326H486.316C486.423 90.814 486.903 92.054 487.718 93.058C488.544 94.05 489.623 94.782 490.942 95.278C492.272 95.763 493.758 96.011 495.4 96.011C497.114 96.011 498.624 95.751 499.93 95.243C501.225 94.735 502.243 94.027 502.975 93.105C503.718 92.195 504.09 91.121 504.102 89.893C504.09 88.771 503.753 87.838 503.106 87.105C502.447 86.373 501.536 85.759 500.373 85.263C499.2 84.767 497.833 84.318 496.275 83.929L491.313 82.677C487.729 81.767 484.889 80.386 482.815 78.531C480.73 76.677 479.699 74.221 479.699 71.138C479.699 68.611 480.394 66.39 481.797 64.488C483.187 62.588 485.093 61.111 487.502 60.06C489.922 58.997 492.656 58.477 495.699 58.477C498.792 58.477 501.5 58.997 503.838 60.06C506.174 61.111 508.009 62.575 509.338 64.441C510.669 66.308 511.365 68.445 511.401 70.866H503.801Z" fill="white"/>
</g>
<defs>
<clipPath id="clip0_1068_27">
<rect width="512" height="104" fill="white"/>
</clipPath>
</defs>
</svg>
